admin/src/theme/img/safetyequipment/u.svg

<svg width="32" height="32" viewBox="0 0 32 32" xmlns="http://www.w3.org/2000/svg">
  <g fill="none" fill-rule="evenodd">
    <path d="M5.31428571 5.69714286 6.04 5.01142857l4.4971429 4.45714286 1.64-1.41142857-2.28571433-5.41142857.80000003-.45714286L13.36 7.52l1.0285714-.38285714.9885715-.15428572.1142857-5.56.9885714.04.1142857 5.48571429 1.1828572.22857143L18.7657143 7.48 21.24 2.26285714l.84.57142857-2.2857143 5.21714286.2685714.07428572.6457143.53142857.84.8L25.9314286 5.04l.76.76-5.2571429 5.1828571L21.0514286 10.68l-.3828572-.4571429-.4571428-.45714281L19.64 9.30857143l-.6114286-.38285714-.7257143-.34285715-.5314285-.18857143L17.2 8.16571429l-.6857143-.15428572h-.6857143l-.7257143.07428572-.8.18857142-.6457142.22857143-.6114286.34285715-.6114286.34285714-.5314286.45714286-.6457142.68571431-.6857143.7257143-5.25714289-5.36000004ZM15.9828571 26.04c.6114286 0 1.1428572.2228571 1.6.6685714.4571429.4457143.6857143.9714286.6857143 1.5828572 0 .6114285-.2285714 1.1771428-.6857143 1.6171428-.4571428.4457143-.9885714.6685715-1.6.6685715-.6114285 0-1.1771428-.2228572-1.6171428-.6685715-.4457143-.4457143-.6685714-.9828571-.6685714-1.6171428 0-.6342857.2228571-1.1371429.6685714-1.5828572.4457143-.4457143.9828571-.6685714 1.6171428-.6685714Zm0 .7257143c-1.0171428 0-1.5257142.5085714-1.5257142 1.5257143 0 1.0171428.5085714 1.5257143 1.5257142 1.5257143 1.0171429 0 1.5257143-.5085715 1.5257143-1.5257143 0-1.0171429-.5085714-1.5257143-1.5257143-1.5257143Zm-.5714285-17.33142859h1.1428571V26.0057143h-1.1428571V9.42857143v.00571428Zm.5714285 18.47428569c.2514286 0 .3828572.1257143.3828572.3828572 0 .2571428-.1257143.3828571-.3828572.3828571-.2571428 0-.3828571-.1257143-.3828571-.3828571 0-.2571429.1257143-.3828572.3828571-.3828572Z" fill="#EC0E0E" fill-rule="nonzero"/>
    <path d="M0 0h32v32H0z"/>
  </g>
</svg>

<?xml version="1.0" encoding="UTF-8"?>
<svg width="32px" height="32px" viewBox="0 0 32 32" version="1.1" xmlns="http://www.w3.org/2000/svg" xmlns:xlink="http://www.w3.org/1999/xlink">
    <title>34F963DC-6ED7-4C8E-8AAD-B7349891551F</title>
    <g id="Squat-laskuri" stroke="none" stroke-width="1" fill="none" fill-rule="evenodd">
        <g id="colors_and_typography" transform="translate(-1102.000000, -954.000000)">
            <g id="turvalaite_ikonit" transform="translate(718.000000, 906.000000)">
                <g id="tutkamerkki" transform="translate(384.000000, 48.000000)">
                    <path d="M5.31428571,5.69714286 L6.04,5.01142857 L10.5371429,9.46857143 L12.1771429,8.05714286 L9.89142857,2.64571429 L10.6914286,2.18857143 L13.36,7.52 L14.3885714,7.13714286 L15.3771429,6.98285714 L15.4914286,1.42285714 L16.48,1.46285714 L16.5942857,6.94857143 L17.7771429,7.17714286 L18.7657143,7.48 L21.24,2.26285714 L22.08,2.83428571 L19.7942857,8.05142857 L20.0628571,8.12571429 L20.7085714,8.65714286 L21.5485714,9.45714286 L25.9314286,5.04 L26.6914286,5.8 L21.4342857,10.9828571 L21.0514286,10.68 L20.6685714,10.2228571 L20.2114286,9.76571429 L19.64,9.30857143 L19.0285714,8.92571429 L18.3028571,8.58285714 L17.7714286,8.39428571 L17.2,8.16571429 L16.5142857,8.01142857 L15.8285714,8.01142857 L15.1028571,8.08571429 L14.3028571,8.27428571 L13.6571429,8.50285714 L13.0457143,8.84571429 L12.4342857,9.18857143 L11.9028571,9.64571429 L11.2571429,10.3314286 L10.5714286,11.0571429 L5.31428571,5.69714286 Z M15.9828571,26.04 C16.5942857,26.04 17.1257143,26.2628571 17.5828571,26.7085714 C18.04,27.1542857 18.2685714,27.68 18.2685714,28.2914286 C18.2685714,28.9028571 18.04,29.4685714 17.5828571,29.9085714 C17.1257143,30.3542857 16.5942857,30.5771429 15.9828571,30.5771429 C15.3714286,30.5771429 14.8057143,30.3542857 14.3657143,29.9085714 C13.92,29.4628571 13.6971429,28.9257143 13.6971429,28.2914286 C13.6971429,27.6571429 13.92,27.1542857 14.3657143,26.7085714 C14.8114286,26.2628571 15.3485714,26.04 15.9828571,26.04 Z M15.9828571,26.7657143 C14.9657143,26.7657143 14.4571429,27.2742857 14.4571429,28.2914286 C14.4571429,29.3085714 14.9657143,29.8171429 15.9828571,29.8171429 C17,29.8171429 17.5085714,29.3085714 17.5085714,28.2914286 C17.5085714,27.2742857 17,26.7657143 15.9828571,26.7657143 Z M15.4114286,9.43428571 L16.5542857,9.43428571 L16.5542857,26.0057143 L15.4114286,26.0057143 L15.4114286,9.42857143 L15.4114286,9.43428571 Z M15.9828571,27.9085714 C16.2342857,27.9085714 16.3657143,28.0342857 16.3657143,28.2914286 C16.3657143,28.5485714 16.24,28.6742857 15.9828571,28.6742857 C15.7257143,28.6742857 15.6,28.5485714 15.6,28.2914286 C15.6,28.0342857 15.7257143,27.9085714 15.9828571,27.9085714 Z" id="Shape" fill="#EC0E0E" fill-rule="nonzero"></path>
                    <rect id="Rectangle" x="0" y="0" width="32" height="32"></rect>
                </g>
            </g>
        </g>
    </g>
</svg>
